icons/evolvere-blue-folders-flat-vivid-dark-fallback/apps/64/skype.svg

<?xml version="1.0" encoding="UTF-8" standalone="no"?>
<!-- Created with Inkscape (http://www.inkscape.org/) -->

<svg
   xmlns:dc="http://purl.org/dc/elements/1.1/"
   xmlns:cc="http://creativecommons.org/ns#"
   xmlns:rdf="http://www.w3.org/1999/02/22-rdf-syntax-ns#"
   xmlns:svg="http://www.w3.org/2000/svg"
   xmlns="http://www.w3.org/2000/svg"
   xmlns:sodipodi="http://sodipodi.sourceforge.net/DTD/sodipodi-0.dtd"
   xmlns:inkscape="http://www.inkscape.org/namespaces/inkscape"
   width="64"
   height="64"
   id="svg13094"
   version="1.1"
   inkscape:version="0.91+devel r"
   sodipodi:docname="skype.svg">
  <sodipodi:namedview
     id="base"
     pagecolor="#ffffff"
     bordercolor="#666666"
     borderopacity="1.0"
     inkscape:pageopacity="1"
     inkscape:pageshadow="2"
     inkscape:zoom="11.313709"
     inkscape:cx="23.775138"
     inkscape:cy="30.419459"
     inkscape:document-units="px"
     inkscape:current-layer="svg13094"
     showgrid="false"
     inkscape:snap-bbox="true"
     inkscape:bbox-paths="true"
     inkscape:bbox-nodes="true"
     inkscape:snap-bbox-edge-midpoints="true"
     inkscape:snap-bbox-midpoints="true"
     inkscape:object-paths="true"
     inkscape:snap-intersection-paths="true"
     inkscape:object-nodes="true"
     inkscape:snap-smooth-nodes="true"
     inkscape:snap-midpoints="true"
     inkscape:snap-object-midpoints="true"
     inkscape:snap-center="true"
     showguides="true"
     inkscape:guide-bbox="true"
     inkscape:window-width="1920"
     inkscape:window-height="1023"
     inkscape:window-x="-10"
     inkscape:window-y="35"
     inkscape:window-maximized="1"
     inkscape:snap-global="false"
     fit-margin-top="0"
     fit-margin-left="0"
     fit-margin-right="0"
     fit-margin-bottom="0"
     showborder="true"
     inkscape:showpageshadow="false"
     inkscape:snap-page="true">
    <inkscape:grid
       type="xygrid"
       id="grid3075"
       empspacing="5"
       visible="true"
       enabled="true"
       snapvisiblegridlinesonly="true"
       originx="1.6362304e-08px"
       originy="18px" />
  </sodipodi:namedview>
  <defs
     id="defs13096" />
  <metadata
     id="metadata13099">
    <rdf:RDF>
      <cc:Work
         rdf:about="">
        <dc:format>image/svg+xml</dc:format>
        <dc:type
           rdf:resource="http://purl.org/dc/dcmitype/StillImage" />
        <dc:title></dc:title>
      </cc:Work>
    </rdf:RDF>
  </metadata>
  <path
     style="color:#000000;fill:#1fa4d6;fill-opacity:1;fill-rule:nonzero;stroke:none;stroke-width:2.28571415;marker:none;visibility:visible;display:inline;overflow:visible;enable-background:accumulate"
     d="M 0 4 L 0 34 L 0 62 L 2 64 L 32 64 L 62 64 L 64 62 L 64 34 L 64 4 L 32 4 L 0 4 z "
     id="path6498" />
  <path
     style="color:#000000;fill:#8cdeff;fill-opacity:1;fill-rule:nonzero;stroke:none;marker:none;visibility:visible;display:inline;overflow:visible;enable-background:accumulate;stroke-width:2.28571415"
     d="M 2 0 L 0 1 L 0 4 L 32 4 L 64 4 L 64 1 L 62 0 L 32 0 L 2 0 z "
     id="path6502" />
  <path
     style="fill:#ace7ff;fill-opacity:1;fill-rule:nonzero"
     d="M 0,3 0,6 2,4 Z"
     id="path4298"
     inkscape:connector-curvature="0"
     sodipodi:nodetypes="cccc" />
  <path
     d="M 64,6 62,4 64,3 z"
     id="path3028"
     style="fill:#56c1eb;fill-opacity:1"
     inkscape:connector-curvature="0" />
  <g
     id="g3043"
     inkscape:export-filename="folder.png"
     inkscape:export-xdpi="90"
     inkscape:export-ydpi="90"
     transform="translate(-0.62500009,0.082283)" />
  <g
     id="scalable"
     transform="matrix(1.0385892,0,0,1.0385892,1214.7222,1878.8121)"
     inkscape:label="#g3701"
     style="fill:#ffffff" />
  <path
     inkscape:connector-curvature="0"
     style="fill:#48c4f2;fill-opacity:1;fill-rule:nonzero;stroke:none;display:inline"
     d="M 21.5,11 C 14.6,11 9,16.6 9,23.499999 c 0,2.131208 0.526964,4.149792 1.46875,5.90625 C 10.15433,30.88635 10,32.42663 10,33.999999 10,46.144001 19.856,56.000001 32,56 33.57337,56 35.11365,55.84567 36.59375,55.53125 38.35622,56.481485 40.35856,57 42.5,57 49.4,57 55,51.400001 55,44.5 55,42.358562 54.48149,40.356218 53.53125,38.59375 53.84567,37.11365 54,35.57337 54,33.999999 54,21.855999 44.144,12 32,12 30.426256,12 28.886676,12.185434 27.40625,12.5 25.649637,11.557999 23.631468,11 21.5,11 z"
     id="path3225" />
  <path
     inkscape:connector-curvature="0"
     style="fill:#ffffff;fill-opacity:0.90071559;fill-rule:evenodd;stroke:none;display:inline"
     d="m 31.59375,20.109375 c -6.875,0 -10.9375,3.09375 -10.9375,8.40625 0,5.77901 7.532848,7.271525 12.1875,7.90625 4.356829,1.167409 4.500001,1.846858 4.5,3.75 0,2.371937 -2.995287,3.281248 -5.03125,3.28125 -6.1471,0 -5.693224,-4.46875 -8.96875,-4.46875 -1.6875,0 -2.5,0.5625 -2.5,2.6875 0,2.125 4.375,6.21875 11.25,6.21875 6.875,0 11.25,-2.65625 11.25,-7.96875 0,-5.469107 -4.525102,-7.086531 -10.5,-8.6875 -3.974279,-0.964864 -6.187501,-1.659358 -6.1875,-3.5625 0,-2.371937 2.526537,-3.28125 4.5625,-3.28125 6.1471,0 4.786974,3.9375 8.0625,3.9375 1.6875,0 2.71875,-0.34375 2.71875,-2.46875 0,-2.125 -3.53125,-5.75 -10.40625,-5.75 z"
     id="path3337" />
</svg>

<svg xmlns="http://www.w3.org/2000/svg" viewBox="0 0 64 64"><g color="#000"><path d="m0 4v30 28l2 2h30 30l2-2v-28-30h-32-32" fill="#1fa4d6"/><path d="m2 0l-2 1v3h32 32v-3l-2-1h-30-30" fill="#8cdeff"/></g><path d="m0 3v3l2-2" fill="#ace7ff"/><path d="m64 6l-2-2 2-1z" fill="#56c1eb"/><path d="m21.5 11c-6.9 0-12.5 5.6-12.5 12.5 0 2.131.527 4.15 1.469 5.906-.314 1.48-.469 3.02-.469 4.594 0 12.144 9.856 22 22 22 1.573 0 3.114-.154 4.594-.469 1.762.95 3.765 1.469 5.906 1.469 6.9 0 12.5-5.6 12.5-12.5 0-2.141-.519-4.144-1.469-5.906.314-1.48.469-3.02.469-4.594 0-12.144-9.856-22-22-22-1.574 0-3.113.185-4.594.5-1.757-.942-3.775-1.5-5.906-1.5" fill="#48c4f2"/><path d="m31.594 20.11c-6.875 0-10.938 3.094-10.938 8.406 0 5.779 7.533 7.272 12.188 7.906 4.357 1.167 4.5 1.847 4.5 3.75 0 2.372-2.995 3.281-5.03 3.281-6.147 0-5.693-4.469-8.969-4.469-1.688 0-2.5.563-2.5 2.688 0 2.125 4.375 6.219 11.25 6.219 6.875 0 11.25-2.656 11.25-7.969 0-5.469-4.525-7.087-10.5-8.688-3.974-.965-6.188-1.659-6.188-3.563 0-2.372 2.527-3.281 4.563-3.281 6.147 0 4.787 3.938 8.06 3.938 1.688 0 2.719-.344 2.719-2.469 0-2.125-3.531-5.75-10.406-5.75" fill="#fff" fill-rule="evenodd" fill-opacity=".901"/></svg>
